src/assets/icons/blind.svg

<svg height="40" viewBox="0 0 40 40" width="40" xmlns="http://www.w3.org/2000/svg"><path d="m15.724198 21.6072347c-.7495949-.909297-1.1998145-2.0745928-1.1998145-3.3450429 0-.9332207.2429282-1.8097025.6689971-2.5696581-2.0979295.572267-4.3374964 1.5001402-6.71776412 2.7871191l-.95123296-1.7593056c4.37752448-2.3668689 8.37249338-3.6107145 11.98975698-3.7134165.0902302-.0046018.1810605-.0069307.2724348-.0069307.0256856 0 .0513282.000184.0769267.0005508.04556-.0003672.0910594-.0005508.136498-.0005508.9693595 0 1.9663443.083571 2.9910505.2503543zm5.0372661 1.8270193c2.3615141-.442371 4.1672122-2.4621465 4.2815491-4.9237816l-4.2815492 4.9237816zm6.1454699-7.0672904 1.3976683-1.6073186c1.3495607.5331082 2.7398423 1.1868867 4.1710142 1.9607022l-.951233 1.7593056c-1.6030636-.8667551-3.1423089-1.5706285-4.6174495-2.1126892zm-13.4692941 7.8698128-1.4040284 1.6146328c-1.4551937-.5558458-2.95819774-1.2534824-4.50922798-2.0921037l.95123296-1.7593055c1.72830732.9344726 3.38243462 1.6796182 4.96202342 2.2367764zm5.5731478 1.2107555c.3340533.0214201.6637924.0321209.9892123.0321209 3.3779177 0 7.2212238-1.1529919 11.5243835-3.4796528l.951233 1.7593055c-4.5744411 2.4733391-8.7311349 3.7203473-12.4756165 3.7203473-.8429603 0-1.7068112-.0631976-2.591616-.1893568zm-7.8213996 6.7086468-1.50921101-1.3123574 19.13043481-22.00000001 1.509211 1.31235741z" /></svg>

<svg width="26px" height="25px" viewBox="0 0 26 25" version="1.1" xmlns="http://www.w3.org/2000/svg" xmlns:xlink="http://www.w3.org/1999/xlink">
    <defs>
        <path d="M15.724198,21.6072347 C14.9746031,20.6979377 14.5243835,19.5326419 14.5243835,18.2621918 C14.5243835,17.3289711 14.7673117,16.4524893 15.1933806,15.6925337 C13.0954511,16.2648007 10.8558842,17.1926739 8.47561648,18.4796528 L7.52438352,16.7203472 C11.901908,14.3534783 15.8968769,13.1096327 19.5141405,13.0069307 C19.6043707,13.0023289 19.695201,13 19.7865753,13 C19.8122609,13 19.8379035,13.000184 19.863502,13.0005508 C19.909062,13.0001836 19.9545614,13 20,13 C20.9693595,13 21.9663443,13.083571 22.9910505,13.2503543 L15.724198,21.6072347 Z M20.7614641,23.434254 C23.1229782,22.991883 24.9286763,20.9721075 25.0430132,18.5104724 L20.761464,23.434254 Z M26.906934,16.3669636 L28.3046023,14.759645 C29.654163,15.2927532 31.0444446,15.9465317 32.4756165,16.7203472 L31.5243835,18.4796528 C29.9213199,17.6128977 28.3820746,16.9090243 26.906934,16.3669636 Z M13.4376399,24.2367764 L12.0336115,25.8514092 C10.5784178,25.2955634 9.07541376,24.5979268 7.52438352,23.7593055 L8.47561648,22 C10.2039238,22.9344726 11.8580511,23.6796182 13.4376399,24.2367764 Z M19.0107877,25.4475319 C19.344841,25.468952 19.6745801,25.4796528 20,25.4796528 C23.3779177,25.4796528 27.2212238,24.3266609 31.5243835,22 L32.4756165,23.7593055 C27.9011754,26.2326446 23.7444816,27.4796528 20,27.4796528 C19.1570397,27.4796528 18.2931888,27.4164552 17.408384,27.290296 L19.0107877,25.4475319 Z M11.1893881,32.1561787 L9.68017709,30.8438213 L28.8106119,8.84382129 L30.3198229,10.1561787 L11.1893881,32.1561787 Z" id="path-1"></path>
    </defs>
    <g id="Symbols" stroke="none" stroke-width="1" fill="none" fill-rule="evenodd">
        <g id="Icon/Eye-Copy" transform="translate(-7.000000, -8.000000)">
            <mask id="mask-2" fill="white">
                <use xlink:href="#path-1"></use>
            </mask>
            <use id="Combined-Shape" fill="#8C8B89" xlink:href="#path-1"></use>
        </g>
    </g>
</svg>
